X: 2
T: Maud Millar - 2nd setting
R: reel
S: https://thesession.org/tunes/1177
M: 4/4
L: 1/8
K: Em
gf | edBA GEDE | G2BG dGBd | e2dB A2GA | Beed ef :|
ge | dega bgg2 | agef g3e | dega bgg2 | aged ea ||
ge | dega bgg2 | agef g3a | bgaf gfed | Beed e2 |]

%%sep 1 1 500

